X:1740
T:Lady Caroline Lowe Waltz
A:Wyresdale, Lancashire
B:E and J Winder, 1835-41
L:1/8
M:3/8
O:England
Z:Richard Robinson 
%%TUNEURL: http://www.leeds.ac.uk/music/Info/RRTuneBk/gettune/00001284.html
%%ID:00001284
K:D
A/G/ | \
(F/G/)AA | (B/c/)dd | (E/F/)GG | F2d/e/ | f/e/d/c/B/A/ | dfa | ABc | d2 ::
b | \
(a/g/)ee | (e/c/)AA | (a/f/)dd | dfa | a/g/ee | (e/c/)AA | d/c/d/f/e/c/ | d2 ::
A | \
AFA | dcd | BAB | G2E | F>GA | AGF | EDE | F2A |
AFA | dcd | BAB | G2E |FGB | AGF | FDE | D2 :: D4 |]
%%newpage
%page 140
